Newaita-dark/apps/48/blender.svg

<svg height="48pt" viewBox="0 0 48 48" width="48pt" xmlns="http://www.w3.org/2000/svg" xmlns:xlink="http://www.w3.org/1999/xlink"><linearGradient id="a" gradientUnits="userSpaceOnUse" x1="24.310923" x2="24.310923" y1="42.05090290639" y2="44.03546750005"><stop offset="0" stop-opacity=".27451"/><stop offset="1" stop-opacity="0"/></linearGradient><linearGradient id="b"><stop offset="0" stop-opacity=".313725"/><stop offset=".222222" stop-opacity=".27451"/><stop offset="1" stop-opacity="0"/></linearGradient><radialGradient id="c" cx="450.908936" cy="189.579361" gradientTransform="matrix(.00000026 -.117199 -.210958 -.00000015 68.76929 95.393005)" gradientUnits="userSpaceOnUse" r="21.166656" xlink:href="#b"/><radialGradient id="d" cx="450.908936" cy="189.579361" gradientTransform="matrix(-.00000026 .117199 .210958 .00000015 -13.201483 -11.291217)" gradientUnits="userSpaceOnUse" r="21.166656" xlink:href="#b"/><radialGradient id="e" cx="450.908936" cy="189.579361" gradientTransform="matrix(-.00000026 -.117199 .210958 -.00000015 -13.201483 95.393005)" gradientUnits="userSpaceOnUse" r="21.166656" xlink:href="#b"/><radialGradient id="f" cx="450.908936" cy="189.579361" gradientTransform="matrix(.00000026 .117199 -.210958 .00000015 68.769288 -11.291222)" gradientUnits="userSpaceOnUse" r="21.166656" xlink:href="#b"/><linearGradient id="g" gradientUnits="userSpaceOnUse" x1="27.78395" x2="27.78395" y1="42.05096580616" y2="4.34417306195"><stop offset="0" stop-color="#ff7043"/><stop offset="1" stop-color="#ff8a65"/></linearGradient><linearGradient id="h" gradientUnits="userSpaceOnUse" x1="296.333333" x2="296.333333" y1="-9.916667" y2="180.583328"><stop offset="0" stop-color="#bdbdbd"/><stop offset="1" stop-color="#eee"/></linearGradient><linearGradient id="i" gradientUnits="userSpaceOnUse" x1="27.78389932772" x2="27.78389932772" y1="23.1975256743" y2="33.12034739728"><stop offset="0" stop-color="#42a5f5"/><stop offset="1" stop-color="#2196f3"/></linearGradient><path d="m26.296875 41.308594h2.976563v2.726562h-2.976563zm0 0" fill="url(#a)"/><path d="m29.273438 42.050781h3.96875v-1.984375h-3.96875zm0 0" fill="url(#c)"/><path d="m26.296875 42.050781h-3.96875v1.984375h3.96875zm0 0" fill="url(#d)"/><path d="m26.296875 42.050781h-3.96875v-1.984375h3.96875zm0 0" fill="url(#e)"/><path d="m29.273438 42.050781h3.96875v1.984375h-3.96875zm0 0" fill="url(#f)"/><path d="m26.417969 4.476562c-.5625 0-1.125.167969-1.617188.511719l-.140625.097657c-1.3125.921874-1.605468 2.746093-.660156 4.097656l3.558594 5.082031h-18.628906c-1.648438 0-2.976563 1.289063-2.976563 2.894531v.167969c0 1.601563 1.328125 2.890625 2.976563 2.890625h7.4375c-.015626.027344-.03125.050781-.046876.074219l-9.679687 11.535156c-1.0625 1.265625-.925781 3.109375.300781 4.140625l.128906.109375c1.226563 1.027344 3.070313.839844 4.128907-.421875l3.1875-3.796875c1.609375 5.886719 6.984375 10.191406 13.398437 10.191406 7.695313 0 13.890625-6.195312 13.890625-13.890625 0-3.75-1.488281-6.203125-3.867187-9.636718l-8.929688-12.753907c-.59375-.84375-1.523437-1.296875-2.460937-1.292969zm0 0" fill="url(#g)"/><path d="m296.3467-9.936249c52.578313 0 95.240905 42.662592 95.240905 95.282567 0 52.578313-42.662592 95.240905-95.240905 95.240905-52.619975 0-95.282567-42.662592-95.282567-95.240905 0-52.619975 42.662592-95.282567 95.282567-95.282567zm0 0" fill="url(#h)" stroke="#212121" stroke-linecap="square" stroke-linejoin="round" stroke-width="3" transform="matrix(.093759 0 0 .093759 0 20.158175)"/><path d="m27.785156 23.199219c2.738282 0 4.960938 2.21875 4.960938 4.960937 0 2.738282-2.222656 4.960938-4.960938 4.960938-2.742187 0-4.960937-2.222656-4.960937-4.960938 0-2.742187 2.21875-4.960937 4.960937-4.960937zm0 0" fill="url(#i)"/><path d="m26.417969 4.476562c-.5625 0-1.125.167969-1.617188.511719l-.140625.097657c-.882812.617187-1.304687 1.648437-1.199218 2.664062.085937-.800781.496093-1.558594 1.199218-2.050781l.140625-.097657c.492188-.34375 1.054688-.511718 1.617188-.511718.9375-.003906 1.867187.449218 2.460937 1.292968l8.929688 12.753907c2.3125 3.339843 3.785156 5.75 3.863281 9.332031.003906-.105469.003906-.207031.003906-.308594 0-3.75-1.488281-6.203125-3.867187-9.636718l-8.929688-12.753907c-.59375-.84375-1.523437-1.296875-2.460937-1.292969zm-17.488281 9.789063c-1.648438 0-2.976563 1.289063-2.976563 2.894531v.167969c0 .074219.003906.148437.007813.222656.117187-1.5 1.398437-2.671875 2.96875-2.671875h18.628906l-.429688-.613281zm6.9375 6.566406-9.226563 10.996094c-.554687.65625-.78125 1.472656-.699219 2.25.058594-.578125.289063-1.152344.699219-1.636719l9.679687-11.535156c.015626-.023438.03125-.050781.046876-.074219zm0 0" fill="#fff" fill-opacity=".392157"/><path d="m23.457031 7.207031c-.054687.671875.121094 1.371094.542969 1.976563l3.226562 4.609375h.332032l-3.558594-5.082031c-.324219-.464844-.503906-.984376-.542969-1.503907zm-17.5 9.800781c-.003906.050782-.003906.101563-.003906.152344v.167969c0 1.601563 1.328125 2.890625 2.976563 2.890625h7.050781l.339843-.398438c.015626-.027343.03125-.050781.046876-.074218h-7.4375c-1.597657 0-2.890626-1.207032-2.972657-2.738282zm35.714844 10.914063c-.125 7.585937-6.273437 13.65625-13.886719 13.65625-6.414062 0-11.789062-4.304687-13.398437-10.195313l-3.1875 3.796876c-1.058594 1.265624-2.902344 1.453124-4.128907.421874l-.128906-.109374c-.609375-.507813-.949218-1.21875-1.007812-1.957032-.070313.902344.269531 1.816406 1.007812 2.433594l.128906.109375c1.226563 1.027344 3.070313.839844 4.128907-.421875l3.1875-3.796875c1.609375 5.886719 6.984375 10.191406 13.398437 10.191406 7.695313 0 13.890625-6.195312 13.890625-13.890625 0-.082031 0-.160156-.003906-.238281zm0 0" fill-opacity=".235294"/><path d="m26.417969 4.335938c-.589844 0-1.179688.175781-1.699219.539062l-.136719.097656c-1.378906.960938-1.683593 2.882813-.695312 4.292969l3.402343 4.859375h-18.359374c-1.722657 0-3.117188 1.355469-3.117188 3.035156v.167969c0 1.679687 1.394531 3.03125 3.117188 3.03125h7.148437l-9.546875 11.378906c-1.105469 1.320313-.96875 3.257813.320312 4.335938l.128907.109375c1.289062 1.082031 3.21875.882812 4.328125-.4375l3.019531-3.601563c1.710937 5.820313 7.070313 10.046875 13.457031 10.046875 7.769532 0 14.03125-6.261718 14.03125-14.03125 0-3.789062-1.511718-6.28125-3.894531-9.71875l-8.929687-12.753906c-.617188-.878906-1.59375-1.355469-2.574219-1.351562zm0 .28125c.890625-.003907 1.78125.425781 2.34375 1.234374l8.929687 12.75c2.378906 3.433594 3.84375 5.84375 3.84375 9.558594 0 7.621094-6.128906 13.75-13.75 13.75-6.351562 0-11.667968-4.261718-13.261718-10.089844-.015626-.050781-.054688-.089843-.105469-.097656-.054688-.011718-.105469.003906-.140625.046875l-3.183594 3.796875c-1.015625 1.207032-2.765625 1.382813-3.933594.402344l-.128906-.109375c-1.167969-.980469-1.296875-2.734375-.285156-3.941406l9.679687-11.535157c.003907-.003906.007813-.007812.007813-.011718.015625-.023438.035156-.046875.050781-.070313.03125-.042969.035156-.097656.007813-.144531-.023438-.046875-.070313-.078125-.125-.078125h-7.4375c-1.574219 0-2.835938-1.226563-2.835938-2.75v-.167969c0-1.527344 1.261719-2.753906 2.835938-2.753906h18.628906c.054687 0 .101562-.027344.125-.074219.023437-.046875.019531-.101562-.007813-.144531l-3.558593-5.085938c-.90625-1.289062-.625-3.023437.625-3.898437l.140624-.097656c.46875-.328125 1-.488281 1.535157-.488281zm0 0" fill="#212121"/><path d="m27.785156 23.199219c-2.75 0-4.960937 2.210937-4.960937 4.960937 0 .082032 0 .164063.003906.246094.128906-2.632812 2.289063-4.710938 4.957031-4.710938 2.664063 0 4.824219 2.078126 4.953125 4.710938.003907-.082031.007813-.164062.007813-.246094 0-2.75-2.214844-4.960937-4.960938-4.960937zm0 0" fill="#fff" fill-opacity=".392157"/><path d="m27.785156 33.121094c-2.75 0-4.960937-2.214844-4.960937-4.960938 0-.085937 0-.167968.003906-.25.128906 2.632813 2.289063 4.714844 4.957031 4.714844 2.664063 0 4.824219-2.082031 4.953125-4.714844.003907.082032.007813.164063.007813.25 0 2.746094-2.214844 4.960938-4.960938 4.960938zm0 0" fill-opacity=".235294"/><path d="m27.785156 23.058594c-2.824218 0-5.101562 2.277344-5.101562 5.101562 0 2.824219 2.277344 5.101563 5.101562 5.101563 2.824219 0 5.101563-2.277344 5.101563-5.101563 0-2.824218-2.277344-5.101562-5.101563-5.101562zm0 .28125c2.671875 0 4.820313 2.144531 4.820313 4.820312 0 2.671875-2.148438 4.820313-4.820313 4.820313-2.675781 0-4.820312-2.148438-4.820312-4.820313 0-2.675781 2.144531-4.820312 4.820312-4.820312zm0 0" fill="#212121"/></svg>

<?xml version="1.0" encoding="UTF-8"?>
<svg xmlns="http://www.w3.org/2000/svg" xmlns:xlink="http://www.w3.org/1999/xlink" width="48pt" height="48pt" viewBox="0 0 48 48" version="1.1">
<defs>
<linearGradient id="linear0" gradientUnits="userSpaceOnUse" x1="254" y1="233.500015" x2="254" y2="254.666672" gradientTransform="matrix(0.093759,0,0,0.093759,0.496137,20.158175)">
<stop offset="0" style="stop-color:rgb(0%,0%,0%);stop-opacity:0.27451;"/>
<stop offset="1" style="stop-color:rgb(0%,0%,0%);stop-opacity:0;"/>
</linearGradient>
<radialGradient id="radial0" gradientUnits="userSpaceOnUse" cx="450.908936" cy="189.579361" fx="450.908936" fy="189.579361" r="21.166656" gradientTransform="matrix(0.000000261256,-0.117199,-0.210958,-0.000000152308,68.76929,95.393005)">
<stop offset="0" style="stop-color:rgb(0%,0%,0%);stop-opacity:0.313725;"/>
<stop offset="0.222222" style="stop-color:rgb(0%,0%,0%);stop-opacity:0.27451;"/>
<stop offset="1" style="stop-color:rgb(0%,0%,0%);stop-opacity:0;"/>
</radialGradient>
<radialGradient id="radial1" gradientUnits="userSpaceOnUse" cx="450.908936" cy="189.579361" fx="450.908936" fy="189.579361" r="21.166656" gradientTransform="matrix(-0.000000261256,0.117199,0.210958,0.000000152308,-13.201483,-11.291217)">
<stop offset="0" style="stop-color:rgb(0%,0%,0%);stop-opacity:0.313725;"/>
<stop offset="0.222222" style="stop-color:rgb(0%,0%,0%);stop-opacity:0.27451;"/>
<stop offset="1" style="stop-color:rgb(0%,0%,0%);stop-opacity:0;"/>
</radialGradient>
<radialGradient id="radial2" gradientUnits="userSpaceOnUse" cx="450.908936" cy="189.579361" fx="450.908936" fy="189.579361" r="21.166656" gradientTransform="matrix(-0.000000261256,-0.117199,0.210958,-0.000000152308,-13.201483,95.393005)">
<stop offset="0" style="stop-color:rgb(0%,0%,0%);stop-opacity:0.313725;"/>
<stop offset="0.222222" style="stop-color:rgb(0%,0%,0%);stop-opacity:0.27451;"/>
<stop offset="1" style="stop-color:rgb(0%,0%,0%);stop-opacity:0;"/>
</radialGradient>
<radialGradient id="radial3" gradientUnits="userSpaceOnUse" cx="450.908936" cy="189.579361" fx="450.908936" fy="189.579361" r="21.166656" gradientTransform="matrix(0.000000261256,0.117199,-0.210958,0.000000152308,68.769288,-11.291222)">
<stop offset="0" style="stop-color:rgb(0%,0%,0%);stop-opacity:0.313725;"/>
<stop offset="0.222222" style="stop-color:rgb(0%,0%,0%);stop-opacity:0.27451;"/>
<stop offset="1" style="stop-color:rgb(0%,0%,0%);stop-opacity:0;"/>
</radialGradient>
<linearGradient id="linear1" gradientUnits="userSpaceOnUse" x1="1040" y1="1695.118164" x2="1040" y2="175.118134" gradientTransform="matrix(0.0248071,0,0,0.0248071,1.984566,0.00000000000000282)">
<stop offset="0" style="stop-color:rgb(100%,43.921569%,26.27451%);stop-opacity:1;"/>
<stop offset="1" style="stop-color:rgb(100%,54.117647%,39.607843%);stop-opacity:1;"/>
</linearGradient>
<linearGradient id="linear2" gradientUnits="userSpaceOnUse" x1="275.166656" y1="-9.916667" x2="275.166656" y2="180.583328" gradientTransform="matrix(1,0,0,1,21.166677,0)">
<stop offset="0" style="stop-color:rgb(74.117647%,74.117647%,74.117647%);stop-opacity:1;"/>
<stop offset="1" style="stop-color:rgb(93.333333%,93.333333%,93.333333%);stop-opacity:1;"/>
</linearGradient>
<linearGradient id="linear3" gradientUnits="userSpaceOnUse" x1="275.166656" y1="-9.916667" x2="275.166656" y2="180.583344" gradientTransform="matrix(0.0520883,0,0,0.0520883,13.450936,23.714068)">
<stop offset="0" style="stop-color:rgb(25.882353%,64.705882%,96.078431%);stop-opacity:1;"/>
<stop offset="1" style="stop-color:rgb(12.941176%,58.823529%,95.294118%);stop-opacity:1;"/>
</linearGradient>
</defs>
<g id="surface1">
<path style=" stroke:none;fill-rule:nonzero;fill:url(#linear0);" d="M 26.296875 41.308594 L 29.273438 41.308594 L 29.273438 44.035156 L 26.296875 44.035156 Z M 26.296875 41.308594 "/>
<path style=" stroke:none;fill-rule:nonzero;fill:url(#radial0);" d="M 29.273438 42.050781 L 33.242188 42.050781 L 33.242188 40.066406 L 29.273438 40.066406 Z M 29.273438 42.050781 "/>
<path style=" stroke:none;fill-rule:nonzero;fill:url(#radial1);" d="M 26.296875 42.050781 L 22.328125 42.050781 L 22.328125 44.035156 L 26.296875 44.035156 Z M 26.296875 42.050781 "/>
<path style=" stroke:none;fill-rule:nonzero;fill:url(#radial2);" d="M 26.296875 42.050781 L 22.328125 42.050781 L 22.328125 40.066406 L 26.296875 40.066406 Z M 26.296875 42.050781 "/>
<path style=" stroke:none;fill-rule:nonzero;fill:url(#radial3);" d="M 29.273438 42.050781 L 33.242188 42.050781 L 33.242188 44.035156 L 29.273438 44.035156 Z M 29.273438 42.050781 "/>
<path style=" stroke:none;fill-rule:nonzero;fill:url(#linear1);" d="M 26.417969 4.476562 C 25.855469 4.476562 25.292969 4.644531 24.800781 4.988281 L 24.660156 5.085938 C 23.347656 6.007812 23.054688 7.832031 24 9.183594 L 27.558594 14.265625 L 8.929688 14.265625 C 7.28125 14.265625 5.953125 15.554688 5.953125 17.160156 L 5.953125 17.328125 C 5.953125 18.929688 7.28125 20.21875 8.929688 20.21875 L 16.367188 20.21875 C 16.351562 20.246094 16.335938 20.269531 16.320312 20.292969 L 6.640625 31.828125 C 5.578125 33.09375 5.714844 34.9375 6.941406 35.96875 L 7.070312 36.078125 C 8.296875 37.105469 10.140625 36.917969 11.199219 35.65625 L 14.386719 31.859375 C 15.996094 37.746094 21.371094 42.050781 27.785156 42.050781 C 35.480469 42.050781 41.675781 35.855469 41.675781 28.160156 C 41.675781 24.410156 40.1875 21.957031 37.808594 18.523438 L 28.878906 5.769531 C 28.285156 4.925781 27.355469 4.472656 26.417969 4.476562 Z M 26.417969 4.476562 "/>
<path style="fill-rule:nonzero;fill:url(#linear2);stroke-width:3;stroke-linecap:square;stroke-linejoin:round;stroke:rgb(12.941177%,12.941177%,12.941177%);stroke-opacity:1;stroke-miterlimit:4;" d="M 296.3467 -9.936249 C 348.925013 -9.936249 391.587605 32.726343 391.587605 85.346318 C 391.587605 137.924631 348.925013 180.587223 296.3467 180.587223 C 243.726725 180.587223 201.064133 137.924631 201.064133 85.346318 C 201.064133 32.726343 243.726725 -9.936249 296.3467 -9.936249 Z M 296.3467 -9.936249 " transform="matrix(0.093759,0,0,0.093759,0,20.158175)"/>
<path style=" stroke:none;fill-rule:nonzero;fill:url(#linear3);" d="M 27.785156 23.199219 C 30.523438 23.199219 32.746094 25.417969 32.746094 28.160156 C 32.746094 30.898438 30.523438 33.121094 27.785156 33.121094 C 25.042969 33.121094 22.824219 30.898438 22.824219 28.160156 C 22.824219 25.417969 25.042969 23.199219 27.785156 23.199219 Z M 27.785156 23.199219 "/>
<path style=" stroke:none;fill-rule:nonzero;fill:rgb(100%,100%,100%);fill-opacity:0.392157;" d="M 26.417969 4.476562 C 25.855469 4.476562 25.292969 4.644531 24.800781 4.988281 L 24.660156 5.085938 C 23.777344 5.703125 23.355469 6.734375 23.460938 7.75 C 23.546875 6.949219 23.957031 6.191406 24.660156 5.699219 L 24.800781 5.601562 C 25.292969 5.257812 25.855469 5.089844 26.417969 5.089844 C 27.355469 5.085938 28.285156 5.539062 28.878906 6.382812 L 37.808594 19.136719 C 40.121094 22.476562 41.59375 24.886719 41.671875 28.46875 C 41.675781 28.363281 41.675781 28.261719 41.675781 28.160156 C 41.675781 24.410156 40.1875 21.957031 37.808594 18.523438 L 28.878906 5.769531 C 28.285156 4.925781 27.355469 4.472656 26.417969 4.476562 Z M 8.929688 14.265625 C 7.28125 14.265625 5.953125 15.554688 5.953125 17.160156 L 5.953125 17.328125 C 5.953125 17.402344 5.957031 17.476562 5.960938 17.550781 C 6.078125 16.050781 7.359375 14.878906 8.929688 14.878906 L 27.558594 14.878906 L 27.128906 14.265625 Z M 15.867188 20.832031 L 6.640625 31.828125 C 6.085938 32.484375 5.859375 33.300781 5.941406 34.078125 C 6 33.5 6.230469 32.925781 6.640625 32.441406 L 16.320312 20.90625 C 16.335938 20.882812 16.351562 20.855469 16.367188 20.832031 Z M 15.867188 20.832031 "/>
<path style=" stroke:none;fill-rule:nonzero;fill:rgb(0%,0%,0%);fill-opacity:0.235294;" d="M 23.457031 7.207031 C 23.402344 7.878906 23.578125 8.578125 24 9.183594 L 27.226562 13.792969 L 27.558594 13.792969 L 24 8.710938 C 23.675781 8.246094 23.496094 7.726562 23.457031 7.207031 Z M 5.957031 17.007812 C 5.953125 17.058594 5.953125 17.109375 5.953125 17.160156 L 5.953125 17.328125 C 5.953125 18.929688 7.28125 20.21875 8.929688 20.21875 L 15.980469 20.21875 L 16.320312 19.820312 C 16.335938 19.792969 16.351562 19.769531 16.367188 19.746094 L 8.929688 19.746094 C 7.332031 19.746094 6.039062 18.539062 5.957031 17.007812 Z M 41.671875 27.921875 C 41.546875 35.507812 35.398438 41.578125 27.785156 41.578125 C 21.371094 41.578125 15.996094 37.273438 14.386719 31.382812 L 11.199219 35.179688 C 10.140625 36.445312 8.296875 36.632812 7.070312 35.601562 L 6.941406 35.492188 C 6.332031 34.984375 5.992188 34.273438 5.933594 33.535156 C 5.863281 34.4375 6.203125 35.351562 6.941406 35.96875 L 7.070312 36.078125 C 8.296875 37.105469 10.140625 36.917969 11.199219 35.65625 L 14.386719 31.859375 C 15.996094 37.746094 21.371094 42.050781 27.785156 42.050781 C 35.480469 42.050781 41.675781 35.855469 41.675781 28.160156 C 41.675781 28.078125 41.675781 28 41.671875 27.921875 Z M 41.671875 27.921875 "/>
<path style=" stroke:none;fill-rule:nonzero;fill:rgb(12.941177%,12.941177%,12.941177%);fill-opacity:1;" d="M 26.417969 4.335938 C 25.828125 4.335938 25.238281 4.511719 24.71875 4.875 L 24.582031 4.972656 C 23.203125 5.933594 22.898438 7.855469 23.886719 9.265625 L 27.289062 14.125 L 8.929688 14.125 C 7.207031 14.125 5.8125 15.480469 5.8125 17.160156 L 5.8125 17.328125 C 5.8125 19.007812 7.207031 20.359375 8.929688 20.359375 L 16.078125 20.359375 L 6.53125 31.738281 C 5.425781 33.058594 5.5625 34.996094 6.851562 36.074219 L 6.980469 36.183594 C 8.269531 37.265625 10.199219 37.066406 11.308594 35.746094 L 14.328125 32.144531 C 16.039062 37.964844 21.398438 42.191406 27.785156 42.191406 C 35.554688 42.191406 41.816406 35.929688 41.816406 28.160156 C 41.816406 24.371094 40.304688 21.878906 37.921875 18.441406 L 28.992188 5.6875 C 28.375 4.808594 27.398438 4.332031 26.417969 4.335938 Z M 26.417969 4.617188 C 27.308594 4.613281 28.199219 5.042969 28.761719 5.851562 L 37.691406 18.601562 C 40.070312 22.035156 41.535156 24.445312 41.535156 28.160156 C 41.535156 35.78125 35.40625 41.910156 27.785156 41.910156 C 21.433594 41.910156 16.117188 37.648438 14.523438 31.820312 C 14.507812 31.769531 14.46875 31.730469 14.417969 31.722656 C 14.363281 31.710938 14.3125 31.726562 14.277344 31.769531 L 11.09375 35.566406 C 10.078125 36.773438 8.328125 36.949219 7.160156 35.96875 L 7.03125 35.859375 C 5.863281 34.878906 5.734375 33.125 6.746094 31.917969 L 16.425781 20.382812 C 16.429688 20.378906 16.433594 20.375 16.433594 20.371094 C 16.449219 20.347656 16.46875 20.324219 16.484375 20.300781 C 16.515625 20.257812 16.519531 20.203125 16.492188 20.15625 C 16.46875 20.109375 16.421875 20.078125 16.367188 20.078125 L 8.929688 20.078125 C 7.355469 20.078125 6.09375 18.851562 6.09375 17.328125 L 6.09375 17.160156 C 6.09375 15.632812 7.355469 14.40625 8.929688 14.40625 L 27.558594 14.40625 C 27.613281 14.40625 27.660156 14.378906 27.683594 14.332031 C 27.707031 14.285156 27.703125 14.230469 27.675781 14.1875 L 24.117188 9.101562 C 23.210938 7.8125 23.492188 6.078125 24.742188 5.203125 L 24.882812 5.105469 C 25.351562 4.777344 25.882812 4.617188 26.417969 4.617188 Z M 26.417969 4.617188 "/>
<path style=" stroke:none;fill-rule:nonzero;fill:rgb(100%,100%,100%);fill-opacity:0.392157;" d="M 27.785156 23.199219 C 25.035156 23.199219 22.824219 25.410156 22.824219 28.160156 C 22.824219 28.242188 22.824219 28.324219 22.828125 28.40625 C 22.957031 25.773438 25.117188 23.695312 27.785156 23.695312 C 30.449219 23.695312 32.609375 25.773438 32.738281 28.40625 C 32.742188 28.324219 32.746094 28.242188 32.746094 28.160156 C 32.746094 25.410156 30.53125 23.199219 27.785156 23.199219 Z M 27.785156 23.199219 "/>
<path style=" stroke:none;fill-rule:nonzero;fill:rgb(0%,0%,0%);fill-opacity:0.235294;" d="M 27.785156 33.121094 C 25.035156 33.121094 22.824219 30.90625 22.824219 28.160156 C 22.824219 28.074219 22.824219 27.992188 22.828125 27.910156 C 22.957031 30.542969 25.117188 32.625 27.785156 32.625 C 30.449219 32.625 32.609375 30.542969 32.738281 27.910156 C 32.742188 27.992188 32.746094 28.074219 32.746094 28.160156 C 32.746094 30.90625 30.53125 33.121094 27.785156 33.121094 Z M 27.785156 33.121094 "/>
<path style=" stroke:none;fill-rule:nonzero;fill:rgb(12.941177%,12.941177%,12.941177%);fill-opacity:1;" d="M 27.785156 23.058594 C 24.960938 23.058594 22.683594 25.335938 22.683594 28.160156 C 22.683594 30.984375 24.960938 33.261719 27.785156 33.261719 C 30.609375 33.261719 32.886719 30.984375 32.886719 28.160156 C 32.886719 25.335938 30.609375 23.058594 27.785156 23.058594 Z M 27.785156 23.339844 C 30.457031 23.339844 32.605469 25.484375 32.605469 28.160156 C 32.605469 30.832031 30.457031 32.980469 27.785156 32.980469 C 25.109375 32.980469 22.964844 30.832031 22.964844 28.160156 C 22.964844 25.484375 25.109375 23.339844 27.785156 23.339844 Z M 27.785156 23.339844 "/>
</g>
</svg>
